X:1
T:Je nose estre content
T:Claudin de Sermisy
T:Source : Premier livre de 31 chansons à 4, eslevées de plusieurs livres---Paris---P.Attaignant---1535. Editor : André Vierendeels (01/05/18) Notes : Original clefs : C1, C3, C4, F4 Original note values have been halved Editorial accidentals above the staff Dotted brackets indicate black notes m 1 in Alto : half rest missing in original print
T:Je nose estre content
T:©
T:©
C:Claudin de Sermisy
Z:©
%%score [ 1 [ 2 3 ] 4 ]
L:1/8
Q:1/4=120
M:2/2
K:F
V:1 treble nm="Alto" snm="A"
V:2 treble-8 nm="Tenor 1" snm="T 1"
V:3 treble-8 nm="Tenor 2" snm="T 2"
V:4 bass nm="Bass" snm="B"
V:1
 z4 z2 F2 | F2 F2 F2 E2 | F2 A2 AGFE | F2 c3 BAG | A4 A2 A2- | AG F4 E2 | F2 C2 F2 G2 | A2 B2 c4 | %8
w: Je|no s'es- tre con-|tent de mon _ _ _|_ con- * * *|* * te-||ment, ne vou- lant|de- si- rer|
 z2 A2 B2 A2 | F2 A2 AGFE | F3 E D4 | z2 D2 E2 E2 | F2 D2 E4 | z2 C2 D2 E2 | F2 A3 GFE | D2 E2 F4 | %16
w: plus grant ai-|s'en ma vi- * * *|* * e,|de peur de|per- dre plus|que ce dont|i'ay en- * * *|* * vy-|
 E4 z2 F2 | F2 F2 F2 E2 | F2 A2 AGFE | F2 c2 cBAG | A4 A2 A2- | AG F4 E2 | F4 z2 F2 | F2 F2 F2 E2 | %24
w: e, car|qui de- man- de|trop pour plai- * * *|sir, pour plai- * * *|sir, a tour-||ment, car|qui de- man- de|
 F2 A2 AGFE | F2 c2 cBAG | A4 A2 A2- | AG F4 E2 | F8 |] %29
w: trop pour plai- * * *|sir, pour plai- * * *|sir, a tour-||ment.|
V:2
 z4 z2 c2 | c2 c2 d2 c2 | A4 z2 A2 | AGFE F2 c2 | cBAG A2 c2- | c2 d2 c2 G2 | c2 c2 d2 e2 | %7
w: Je|no- s'es- tre con-|tent de|mon _ _ _ _ con-|ten- * * * * *|* * ment, ne|vou- lant de- *|
 f3 e/d/ e4 | c4 z2 c2 | d2 c2 A2 d2- | d2 c2 B4 | A2 F2 G2 A2 | FG AB c4- | c4 z2 c2 | %14
w: * * * si-|rer plus|grant ai- s'en ma|_ vi- *|e, de peur de|per- * dre _ plus|_ que|
 d2 c2 A2 B2- | BA G4 F2 | G4 z2 c2 | c2 c2 d2 c2 | A4 z2 A2 | AGFE F2 c2 | cBAG A2 c2- | %21
w: ce dont i'ay en-|* * vy- *|e, car|qui de- man- de|trop pour|plai- sir, _ _ _ pour|plai- * * * * sir|
 c2 d2 c4 | A4 z2 c2 | c2 c2 d2 c2 | A4 z2 A2 | AGFE F2 c2 | cBAG A2 c2- | c2 d2 c4 | A8 |] %29
w: _ a tour-|ment, car|qui de- man- de|trop pour|plai- * * * sir, pour|plai- * * * * sir|_ a tour-|ment.|
V:3
 z4 z2 A2 | A2 A2 B2 G2 | FEFG A4 | z2 A2 AGFE | F2 c3 BAG | A2 B2 G4 | F4 z2 C2 | F2 F2 G2 G2 | %8
w: Je|no- s'es- tre con-|tent, _ _ _ _|de mon _ _ _|_ con- * * *|* ten- te-|ment, ne|vou- lant de- si-|
 A4 z2 A2 | A3 G A2 B2- | B2 A4 G2 | A4 z2 c2 | A2 F2 G2 G2 | A4 z2 G2 | A3 B c2 d2- | dc c4 B2 | %16
w: rer plus|grant ai- s'en ma|_ vi- *|e, de|peur de per- dre|plus que|ce dont i'ay en-|* * vi- *|
 c4 z2 A2 | A2 A2 B2 G2 | FEFG A4 | z2 A2 AGFE | F2 c3 BAG | A2 B2 G4 | F4 z2 A2 | A2 A2 B2 G2 | %24
w: e, car|qui de- man- de|trop _ _ _ _|pour plai- * * *|sir a _ _ _|_ _ tour-|ment, car|qui de- man- de|
 FEFG A4 | z2 A2 AGFE | F2 c3 B AG | A2 B2 G4 | F8 |] %29
w: trop _ _ _ _|pour plai- * * *|sir a _ _ _|_ _ tour-|ment.|
V:4
 z4 z2 F,2 | F,2 F,2 B,,2 C,2 | D,3 E, F,4- | F,4 z2 A,2 | A,G,F,E, F,2 F,2- | F,2 B,,2 C,4 | %6
w: Je|no- s'es- tre con-|tent, _ _|_ de|mon _ _ _ _ con-|* ten- te-|
 F,,2 F,2 F,2 E,2 | D,2 D,2 C,4 | z2 F,2 G,2 F,2 | D,2 F,3 E, D,C, | B,,2 F,,2 G,,4 | %11
w: ment, ne vou- lant|de- si- rer|plus grant ai-|s'en ma _ _ _|vi- * e,|
 z2 D,2 C,2 A,,2 | D,2 D,2 C,4 | z2 F,2 F,2 E,2 | D,2 F,3 E,D,C, | B,,2 C,2 D,4 | C,4 z2 F,2 | %17
w: de peur de|per- dre plus|que ce dont|i'ay en- * * *|* * vy-|e, car|
 F,2 F,2 B,,2 C,2 | D,3 E, F,4- | F,4 z2 A,2 | A,G,F,E, F,2 F,2- | F,2 B,,2 C,4 | F,,4 z2 F,2 | %23
w: qui de- man- de|trop _ _|_ pour|plai- * * * * sir|_ a tour-|ment, car|
 F,2 F,2 B,,2 C,2 | D,3 E, F,4- | F,4 z2 A,2 | A,G,F,E, F,2 F,2- | F,2 B,,2 C,4 | F,8 |] %29
w: qui de- man- de|trop _ _|_ pour|plai- * * * * sir|_ a tour-|ment.|

